icons/wix.svg

<?xml version="1.0" encoding="UTF-8"?>
<svg width="512px" height="202px" viewBox="0 0 512 202" version="1.1" xmlns="http://www.w3.org/2000/svg" xmlns:xlink="http://www.w3.org/1999/xlink" preserveAspectRatio="xMidYMid">
    <g>
        <path d="M0,0.230966635 C0,0.230966635 20.2953443,-2.32903336 33.8255738,9.6568027 C42.1770492,17.0514257 44.6111475,28.8358191 44.6111475,28.8358191 L72.2423607,136.414573 L95.2236066,48.3673601 C97.4562623,39.0086716 101.493508,27.4341142 107.872525,19.6114257 C116.014164,9.64840926 132.540852,9.01890106 134.303475,9.01890106 C136.066098,9.01890106 152.584393,9.64840926 160.717639,19.6114257 C167.096656,27.4341142 171.133902,39.0002781 173.374951,48.3673601 L196.356197,136.414573 L223.979016,28.8358191 C223.979016,28.8358191 226.421508,17.0514257 234.772984,9.6568027 C248.303213,-2.32903336 268.590164,0.230966635 268.590164,0.230966635 L215.677902,201.279098 C215.677902,201.279098 198.227934,202.546508 189.490361,198.072803 C178.016525,192.197393 172.56918,187.664934 165.61941,160.302311 C162.106983,146.307173 158.637677,132.301249 155.211541,118.284737 L153.910557,113.005262 C150.242623,98.048147 146.583082,83.1497863 144.006295,72.7838847 L142.747279,67.7478191 C141.588984,63.1817863 140.791607,60.1097863 140.50623,59.1865076 C139.725639,56.6600814 138.793967,50.641983 134.295082,50.641983 C129.896918,50.641983 128.881311,56.6684748 128.083934,59.1865076 C127.790164,60.1097863 126.992787,63.1733929 125.842885,67.7478191 L124.583869,72.7838847 C121.903919,83.5556208 119.24599,94.3328236 116.610098,105.115426 L115.317508,110.369721 C111.252946,127.028593 107.140142,143.675657 102.979148,160.310704 C96.029377,187.664934 90.5736393,192.205786 79.0998033,198.072803 C70.3622295,202.546508 52.9122623,201.279098 52.9122623,201.279098 L0,0.230966635 L0,0.230966635 Z M318.934033,33.5781142 L318.934033,40.838442 L318.95082,40.838442 L318.95082,162.199229 C318.858492,187.102573 316.449574,192.633852 305.974557,198.366573 C297.832918,202.823491 285.377049,201.136409 285.377049,201.136409 L285.377049,65.1878191 C285.377049,58.3639502 287.492197,53.8902453 295.289705,49.8781797 C299.948066,47.4776552 304.287475,45.6394912 308.803148,42.9200158 C314.972328,39.2269011 318.103082,34.8371306 318.791344,33.7963437 L318.934033,33.5781142 Z M335.737705,0.902442045 C335.737705,0.902442045 363.075148,-3.94057435 376.61377,8.87621254 C384.226623,16.0861797 392.645246,28.3741797 394.550557,31.2111634 L394.911475,31.7483437 L394.953443,31.8154912 L418.79082,67.537983 C419.940721,69.3929338 421.451541,71.4157535 423.868852,71.4157535 C426.27777,71.4157535 427.796984,69.4013273 428.955279,67.537983 L452.784262,31.8154912 L452.82623,31.7483437 L453.187148,31.2111634 C455.092459,28.3741797 463.511082,16.0861797 471.132328,8.86781909 C484.662557,-3.94057435 512,0.894048602 512,0.894048602 L447.227803,101.07818 L511.823738,200.934967 C511.823738,200.934967 483.856787,204.678442 470.318164,191.861655 C461.656131,183.669655 452.784262,170.332475 452.784262,170.332475 L428.946885,134.618376 C427.796984,132.755032 426.27777,130.732213 423.868852,130.732213 C421.451541,130.732213 419.940721,132.746639 418.782426,134.618376 L394.953443,170.332475 C394.953443,170.332475 386.568393,183.669655 377.914754,191.861655 C364.376131,204.678442 335.905574,200.934967 335.905574,200.934967 L400.501508,101.07818 L335.737705,0.902442045 L335.737705,0.902442045 Z M318.866885,0.00434368429 L318.95082,0.00434368429 C318.95082,13.3499175 317.691803,21.2817207 309.634098,27.4425076 C305.893545,30.3173017 301.768637,32.6538077 297.379672,34.3838847 C292.929277,36.1200835 288.854378,38.6961035 285.377049,41.9715568 C285.377049,17.664147 288.927475,8.85942565 298.47082,3.64709778 C304.404984,0.40722893 314.14977,0.0379174548 317.649836,0.00434368429 L318.866885,0.00434368429 L318.866885,0.00434368429 Z" fill="#000000"></path>
    </g>
</svg>

<svg xmlns="http://www.w3.org/2000/svg" viewBox="0 0 512 201.45">
  <path d="M0 .232s20.295-2.56 33.826 9.425c8.351 7.395 10.785 19.18 10.785 19.18l27.631 107.578 22.982-88.047c2.232-9.359 6.27-20.933 12.649-28.756 8.141-9.963 24.668-10.593 26.43-10.593 1.763 0 18.281.63 26.415 10.593 6.379 7.823 10.416 19.389 12.657 28.756l22.981 88.047L223.98 28.836s2.443-11.784 10.794-19.179C248.303-2.328 268.59.232 268.59.232L215.678 201.28s-17.45 1.267-26.188-3.207c-11.473-5.875-16.92-10.407-23.87-37.77a7026.141 7026.141 0 0 1-10.408-42.018l-1.301-5.28a14837.964 14837.964 0 0 0-9.905-40.22l-1.259-5.037c-1.158-4.566-1.955-7.638-2.24-8.56-.781-2.527-1.713-8.545-6.212-8.545-4.398 0-5.414 6.026-6.211 8.544-.294.923-1.091 3.987-2.241 8.561l-1.26 5.036a8145.182 8145.182 0 0 0-7.973 32.332l-1.292 5.254a8880.567 8880.567 0 0 1-12.339 49.941c-6.95 27.355-12.405 31.895-23.88 37.762-8.737 4.474-26.187 3.207-26.187 3.207zm318.934 33.347v7.26h.017v121.36c-.092 24.904-2.501 30.435-12.976 36.168-8.142 4.457-20.598 2.77-20.598 2.77V65.188c0-6.823 2.115-11.297 9.913-15.31 4.658-2.4 8.997-4.238 13.513-6.957 6.17-3.694 9.3-8.083 9.988-9.124zM335.738.903s27.337-4.843 40.876 7.974c7.613 7.21 16.031 19.498 17.937 22.335l.36.537.042.067 23.838 35.723c1.15 1.855 2.66 3.877 5.078 3.877 2.409 0 3.928-2.014 5.086-3.877l23.83-35.723.041-.067.361-.537c1.905-2.837 10.324-15.125 17.945-22.344C484.662-3.94 512 .895 512 .895l-64.772 100.184 64.596 99.857s-27.967 3.743-41.506-9.074c-8.662-8.192-17.534-21.529-17.534-21.529l-23.837-35.714c-1.15-1.863-2.67-3.886-5.078-3.886-2.417 0-3.928 2.014-5.087 3.886l-23.829 35.714s-8.385 13.337-17.038 21.53c-13.539 12.816-42.01 9.073-42.01 9.073l64.597-99.857zM318.867.005h.084c0 13.346-1.26 21.277-9.317 27.438a50.503 50.503 0 0 1-12.254 6.941 37.25 37.25 0 0 0-12.003 7.588c0-24.307 3.55-33.112 13.094-38.324C304.405.408 314.15.038 317.65.005h1.217z"/>
</svg>
